Papirus-Dark/symbolic/apps/preferences-desktop-apps-symbolic.svg

<svg xmlns="http://www.w3.org/2000/svg" width="16" height="16" version="1.1">
 <path style="fill:#dfdfdf" d="M1 0C.446 0 0 .446 0 1v5c0 .554.446 1 1 1h5c.554 0 1-.446 1-1V1c0-.554-.446-1-1-1zm1 3h3v2H2zm7-3c-.554 0-1 .446-1 1v5c0 .554.446 1 1 1h5c.554 0 1-.446 1-1V1c0-.554-.446-1-1-1zm1 3h3v2h-3zM1 8c-.554 0-1 .446-1 1v5c0 .554.446 1 1 1h5c.554 0 1-.446 1-1V9c0-.554-.446-1-1-1zm1 3h3v2H2zm7-3c-.554 0-1 .446-1 1v5c0 .554.446 1 1 1h5c.554 0 1-.446 1-1V9c0-.554-.446-1-1-1zm1 3h3v2h-3z"/>
</svg>

<svg xmlns="http://www.w3.org/2000/svg" width="16" height="16" version="1.1">
 <path style="fill:#dfdfdf" d="M 1,0 C 0.446,0 0,0.446 0,1 V 6 C 0,6.554 0.446,7 1,7 H 6 C 6.554,7 7,6.554 7,6 V 1 C 7,0.446 6.554,0 6,0 Z M 2,3 H 5 V 5 H 2 Z M 9,0 C 8.446,0 8,0.446 8,1 V 6 C 8,6.554 8.446,7 9,7 H 14 C 14.554,7 15,6.554 15,6 V 1 C 15,0.446 14.554,0 14,0 Z M 10,3 H 13 V 5 H 10 Z M 1,8 C 0.446,8 0,8.446 0,9 V 14 C 0,14.554 0.446,15 1,15 H 6 C 6.554,15 7,14.554 7,14 V 9 C 7,8.446 6.554,8 6,8 Z M 2,11 H 5 V 13 H 2 Z M 9,8 C 8.446,8 8,8.446 8,9 V 14 C 8,14.554 8.446,15 9,15 H 14 C 14.554,15 15,14.554 15,14 V 9 C 15,8.446 14.554,8 14,8 Z M 10,11 H 13 V 13 H 10 Z"/>
</svg>
